X: 251
T: 252. Jesu, nun sei gepreiset
N: Derived from chor252.krn
C: Johann Sebastian Bach
%%abc-version 2.0
%%abcx-abcm2ps-target-version 5.9.1 (29 Sep 2008)
%%abc-creator hum2abc beta
%%abcx-conversion-date 2019/03/11 17:28:19
%%abc-edited-by Craig Stuart Sapp
%%humdrum-veritas 2127100416
%%humdrum-veritas-data 1567882508
%%
%%barnumbers 0
L: 1/4
M: C
%%staves [1 2 3 4]
V: 1 clef=treble
V: 2 clef=treble
V: 3 clef=treble-8
V: 4 clef=bass
K: Bb
[V:1] d [I:setbarnb 1]| 
[V:2] F | 
[V:3] B | 
[V:4] B,/A,/ | 
[V:1] dBcd | 
[V:2] G/^F/GG/A/B | 
[V:3] B/c/dcf | 
[V:4] G,/A,/ G,/=F,/ E,/F,/ E,/D,/ | 
[V:1] ed/c/!fermata!cc | 
[V:2] B/A/BAG | 
[V:3] e/c/ffc | 
[V:4] C,D,/E,/!fermata!F,E, | 
[V:1] cBB/G/A | 
[V:2] ^FDG=F | 
[V:3] d/A/Bcc | 
[V:4] D,G,/=F,/=E,F, | 
[V:1] !fermata!B3c | 
[V:2] !fermata!F3F/=E/ | 
[V:3] !fermata!d3A/B/ | 
[V:4] !fermata!B,,3F,/G,/ | 
[V:1] ccc/d//e// d/c/ | 
[V:2] F/G/ A/G/A3/^F/ | 
[V:3] c/d/_edA | 
[V:4] A,/B,/C^F,3/D,/ | 
[V:1] B2!fermata!BB | 
[V:2] D/E/=F!fermata!EG | 
[V:3] B_A!fermata!Gc | 
[V:4] G,/=F,/E,/D,/!fermata!E,=E, | 
[V:1] A/F/ B/e/ d/c/c | 
[V:2] F/E/ D/E/ F/G/ F/E/ | 
[V:3] cBBA | 
[V:4] F,G,F,/_E,/F, | 
[V:1] !fermata!B3 :|]  
[V:2] !fermata!D3 :|]  
[V:3] !fermata!F3 :|]  
[V:4] !fermata!B,,3 :|]  
[V:1] A [I:setbarnb 9]| 
[V:2] C | 
[V:3] F/A/ | 
[V:4] F,, | 
[V:1] AAAA | 
[V:2] FF^F/G/ A/F/ | 
[V:3] ccdd/c/ | 
[V:4] F,/G,/F,/E,/ D,/=E,/ ^F,/D,/ | 
[V:1] B2!fermata!BB | 
[V:2] G/E/=F!fermata!EG | 
[V:3] B_A!fermata!Gc | 
[V:4] G,/=F,/_E,/D,/!fermata!E,=E, | 
[V:1] AAAA | 
[V:2] FE/D/CF | 
[V:3] ccfc | 
[V:4] F,C,/D,/ _E,/G,/ F,/E,/ | 
[V:1] B2!fermata!Bd | 
[V:2] FE!fermata!DF/G/ | 
[V:3] B/_A/G!fermata!FB | 
[V:4] D,/B,,/E,!fermata!B,,B, | 
[V:1] d/c/Bcd | 
[V:2] =ADG/F/F | 
[V:3] AB/A/ G/A/B | 
[V:4] ^F,G,/=F,/ E,/F,/ E,/D,/ | 
[V:1] e2!fermata!dd | 
[V:2] E/D/C/F/!fermata!FF | 
[V:3] BA!fermata!BB | 
[V:4] C,F,!fermata!B,,B, | 
[V:1] c/=B/ c/f/ e/d/d ||  
[V:2] F/D/ E/F/ G/_A/ G/F/ ||  
[V:3] ccc=B ||  
[V:4] A,_A,G,/F,/G, ||  
[V:1] [M:3/4]c2=B | 
[V:2] [M:3/4]E2F | 
[V:3] [M:3/4]G2d | 
[V:4] [M:3/4]C,2D, | 
[V:1] c2c | 
[V:2] G2F/_E/ | 
[V:3] cB_A | 
[V:4] E,=E,F, | 
[V:1] d2d | 
[V:2] Dd/c/ B/_A/ | 
[V:3] =A2B | 
[V:4] F,^F,G,- | 
[V:1] e3 | 
[V:2] G/F/E/G/c/_B/ | 
[V:3] =Bc2- | 
[V:4] G,_A,G, | 
[V:1] d2d | 
[V:2] =ADG | 
[V:3] c_BB | 
[V:4] ^F,G,=F, | 
[V:1] c2c | 
[V:2] GF_E/F/ | 
[V:3] B_A/B/ c/d/ | 
[V:4] =E,F,/G,/_A, | 
[V:1] ce/d/ c/_B/ | 
[V:2] G_AG | 
[V:3] efd | 
[V:4] G,F,G, | 
[V:1] !fermata!c2=B | 
[V:2] !fermata!G2G | 
[V:3] !fermata!e2d | 
[V:4] !fermata!C,2G, | 
[V:1] c2c | 
[V:2] GF2 | 
[V:3] cfe | 
[V:4] _A,=A,2 | 
[V:1] d2d | 
[V:2] F/G/_AG | 
[V:3] d/e/fe/d/ | 
[V:4] B,=B,2 | 
[V:1] e3 | 
[V:2] G2F | 
[V:3] cBc | 
[V:4] CG,=A, | 
[V:1] d2d | 
[V:2] F2G | 
[V:3] B2B | 
[V:4] B,/C/ B,/A,/ G,/F,/ | 
[V:1] c2B | 
[V:2] G2G | 
[V:3] cde | 
[V:4] E,/G,/F,/E,/ D,/C,/ | 
[V:1] Bd/c/ B/A/ | 
[V:2] FGF | 
[V:3] dec | 
[V:4] F,E,F, | 
[V:1] !fermata!B3 |]  
[V:2] !fermata!F3 |]  
[V:3] !fermata!d3 |]  
[V:4] !fermata!B,,3 |]  



